X:1
T:Kinshasa, 76.76.66.76
T:Kinshasa, 76.76.66.76
T:John Sylvester Fearis, 1902
T:Public Domain Courtesy of the Cyber Hymnal™
C:John Sylvester Fearis, 1902
Z:Public Domain
Z:Courtesy of the Cyber Hymnal™
%%score ( 1 2 ) ( 3 4 )
L:1/8
Q:1/4=98
M:6/8
K:F
V:1 treble 
V:2 treble 
V:3 bass 
V:4 bass 
V:1
 C[CF][CG] [FA]2 [CF] | [CG]3 [CF]2 z | C[CF][FA] [Fc]2 [Fd] | [Fc]3- [Fc]2 z | %4
 [Ec][GB][FA] [EG]2 [EA] | [EG]3 F2 z | [FA][FG][FA] [FG]2 [Fd] | [Ec]3- [Ec]2 z | %8
 [FA]2 [Fc] [_EA]2 [Ec] | [EB]3 C2 z | [CF][CF][CF] (AG)F | [EG]3- [EG]2 z | %12
 [FA][FA][FA] (AG)[=EF] | F2 B [Fd]3 | [Fc][FA]F [EG]2 [Ec] | F3- F2 z |] %16
V:2
 C x5 | x6 | C x5 | x6 | x6 | x3 F2 x | x6 | x6 | x6 | x3 C2 x | x3 F2 F | x6 | x3 _E2 x | D3 x3 | %14
 x2 F x3 | F3- F2 x |] %16
V:3
 [F,A,][F,A,][F,B,] [F,C]2 [F,A,] | [C,B,]3 [F,A,]2 z | [F,A,][F,A,][F,C] [F,A,]2 [F,^G,] | %3
 [F,A,]3- [F,A,]2 z | [C,C][C,C][C,C] [C,B,]2 [C,C] | [^C,B,]3 [D,A,]2 z | %6
 [G,=B,][G,B,][G,B,] [G,B,]2 [G,B,] | [C,C]3- [C,C]2 z | [F,C]2 [F,A,] [^F,C]2 [F,A,] | %9
 (G,2 C) [C,B,]2 z | [F,A,][F,A,][F,A,] [D,=B,]2 [D,B,] | [C,C]3- [C,C]2 z | %12
 [F,C][F,C][F,C] (CB,)[F,A,] | B,3 [B,,B,]3 | [C,A,][C,C][C,A,] [C,B,]2 [C,B,] | %15
 [F,A,]3- [F,A,]2 z |] %16
V:4
 x6 | x6 | x6 | x6 | x6 | x6 | x6 | x6 | x6 | G,3 x3 | x6 | x6 | x3 F,2 x | B,3 x3 | x6 | x6 |] %16

